assets/luts/lut_1.rabbit-5639615.cube
TITLE "Generated by Resolve"
LUT_3D_SIZE 33
0 0 0
0.0027924 0.00648508 0.020676
0.00779736 0.0129854 0.0347295
0.0144045 0.0192264 0.0466468
0.0225834 0.0251469 0.0571145
0.0323339 0.0307164 0.0664378
0.0437171 0.0359045 0.0747539
0.0567788 0.0406958 0.0821698
0.0715953 0.0450446 0.0887312
0.0882277 0.0489357 0.0944686
0.106737 0.0523537 0.0993973
0.127214 0.0552834 0.103532
0.149722 0.0576791 0.106874
0.174319 0.0595407 0.109392
0.201114 0.0608377 0.111101
0.230167 0.0615549 0.111971
0.261555 0.0616617 0.111971
0.295354 0.0611429 0.111086
0.331655 0.0599832 0.10927
0.37052 0.0581521 0.106508
0.412024 0.0556344 0.102724
0.45626 0.05243 0.0978866
0.503288 0.0485084 0.0919051
0.553185 0.0438544 0.0847181
0.606043 0.038468 0.0762036
0.661921 0.0323339 0.0662089
0.720882 0.025452 0.05449
0.783078 0.0178378 0.0406043
0.84863 0.00955215 0.0235142
0.918318 0.00111391 0
0.990662 0 0
1 0 0
1 0 0
0.0100557 0.0238651 0.0501259
0.0161593 0.0304723 0.059968
0.0237125 0.0367437 0.0687724
0.0327611 0.0426795 0.0766613
0.0433814 0.0482338 0.0836805
0.0556191 0.0533913 0.0898756
0.0695506 0.0581216 0.0952926
0.0852522 0.0624094 0.0999313
0.102815 0.0662394 0.103777
0.122286 0.0695659 0.106859
0.143755 0.0723888 0.109133
0.167315 0.0746777 0.110613
0.193011 0.0764172 0.111254
0.220935 0.0775769 0.11104
0.251179 0.0781415 0.109957
0.283803 0.0780957 0.107942
0.318898 0.077409 0.104967
0.356527 0.0760815 0.100969
0.39678 0.0740826 0.0959182
0.439719 0.071397 0.0897231
0.485435 0.0680247 0.0822766
0.533989 0.0639506 0.0734569
0.585443 0.0591592 0.0631113
0.639933 0.0536812 0.0508888
0.69752 0.0475166 0.0362402
0.758389 0.0407874 0.0174716
0.823117 0.0339971 0
0.890272 0.0256504 0
0.960418 0.0162509 0
1 0.00585946 0
1 0 0
1 0 0
1 0 0
0.0203555 0.0499428 0.0782177
0.0284886 0.0562753 0.0848402
0.038117 0.0622416 0.0906996
0.0493324 0.0678264 0.0957809
0.062211 0.0729992 0.100114
0.0768139 0.0777142 0.103685
0.0932326 0.0819867 0.106508
0.111543 0.0857862 0.108537
0.131823 0.0890669 0.109773
0.154131 0.0918288 0.110201
0.178576 0.0940566 0.109773
0.205234 0.0957198 0.108476
0.234165 0.096788 0.106264
0.265446 0.097261 0.10309
0.299168 0.0971237 0.0988937
0.335409 0.0963455 0.0936294
0.374243 0.0949111 0.0871901
0.415732 0.0928206 0.0794995
0.459968 0.0900587 0.0703899
0.507042 0.0866255 0.0596475
0.557015 0.082536 0.046891
0.61004 0.077821 0.031342
0.666407 0.072755 0.00950637
0.726146 0.0672618 0
0.788266 0.0603189 0
0.853284 0.0523842 0
0.92134 0.0435492 0
0.992432 0.033814 0
1 0.0231632 0
1 0.0116121 0
1 0 0
1 0 0
1 0 0
0.0279088 0.0779431 0.0958267
0.0379034 0.0839857 0.0998703
0.0495308 0.0896315 0.103166
0.0628519 0.0948501 0.105715
0.0779583 0.0996262 0.107515
0.0949264 0.103929 0.108522
0.113817 0.107729 0.108721
0.134737 0.111025 0.108095
0.157748 0.113787 0.106584
0.18294 0.115999 0.104158
0.210391 0.117647 0.100786
0.240177 0.1187 0.0963912
0.272358 0.119142 0.090898
0.307042 0.118975 0.0842451
0.344305 0.118181 0.0762798
0.384207 0.116747 0.0668498
0.426841 0.114672 0.0556954
0.472313 0.111986 0.0423438
0.52076 0.108751 0.0256352
0.572854 0.105562 0
0.627298 0.101076 0
0.684413 0.0955215 0
0.744381 0.0890669 0
0.807263 0.0817273 0
0.873137 0.073518 0
0.942031 0.0644388 0
1 0.0545052 0
1 0.0436866 0
1 0.0320134 0
1 0.0194553 0
1 0.00602731 0
1 0 0
1 0 0
0.0317388 0.108003 0.104341
0.0435492 0.113771 0.105898
0.0571298 0.119112 0.106691
0.0725414 0.12398 0.106676
0.0898756 0.128359 0.105837
0.109194 0.13225 0.104128
0.130602 0.135622 0.101518
0.154147 0.138445 0.0979324
0.179934 0.140703 0.0933394
0.208026 0.142397 0.0876478
0.238529 0.143496 0.0807355
0.271489 0.144015 0.0725109
0.307012 0.143908 0.0627451
0.34519 0.143221 0.051133
0.38613 0.141955 0.0370642
0.43003 0.140261 0.0185702
0.477394 0.138552 0
0.526833 0.135363 0
0.578927 0.131243 0
0.633844 0.126238 0
0.691585 0.120409 0
0.752255 0.113725 0
0.815854 0.106203 0
0.882429 0.0978256 0
0.95198 0.0886091 0
1 0.0785534 0
1 0.0676585 0
1 0.0559091 0
1 0.0433204 0
1 0.0299077 0
1 0.0156558 0
1 0.000564584 0
1 0 0
0.0312505 0.140322 0.103807
0.044831 0.14583 0.102785
0.0603342 0.150881 0.100908
0.077821 0.155428 0.0981155
0.0973831 0.159457 0.0943618
0.119081 0.162966 0.0895552
0.142992 0.165927 0.08365
0.169223 0.168322 0.076524
0.197833 0.170169 0.0680095
0.228916 0.171435 0.0578775
0.262577 0.172137 0.0457618
0.298939 0.172335 0.0307622
0.338445 0.172381 0.00790417
0.380728 0.171847 0
0.425177 0.170031 0
0.472251 0.167346 0
0.522057 0.163836 0
0.574655 0.159503 0
0.630076 0.154345 0
0.68838 0.148379 0
0.749584 0.141573 0
0.813703 0.133944 0
0.880751 0.125505 0
0.950713 0.116228 0
1 0.106126 0
1 0.0951858 0
1 0.0834516 0
1 0.0708934 0
1 0.0575265 0
1 0.0433661 0
1 0.0284123 0
1 0.0126955 0
1 0 0
0.0261387 0.175051 0.0935378
0.0413825 0.180377 0.089662
0.0587625 0.185183 0.0847334
0.0783093 0.189456 0.078645
0.100099 0.19321 0.0712902
0.124208 0.196414 0.0625162
0.150729 0.199084 0.052018
0.179767 0.201221 0.039292
0.21146 0.20293 0.0230716
0.246494 0.204776 0
0.283513 0.205325 0
0.322927 0.204944 0
0.36492 0.203723 0
0.409567 0.201694 0
0.456947 0.198886 0
0.507103 0.19527 0
0.560082 0.19086 0
0.615885 0.185626 0
0.674556 0.179599 0
0.736095 0.172763 0
0.800519 0.165103 0
0.867842 0.156634 0
0.938033 0.147341 0
1 0.137255 0
1 0.12636 0
1 0.114656 0
1 0.10219 0
1 0.0889296 0
1 0.0749065 0
1 0.0601358 0
1 0.0446174 0
1 0.0285344 0
1 0.0116274 0
0.016434 0.212345 0.071931
0.0331731 0.217594 0.0645151
0.0523232 0.222293 0.0555428
0.07393 0.226459 0.0446937
0.0980697 0.230137 0.0313268
0.124956 0.233478 0.0131685
0.154971 0.236805 0
0.186786 0.238743 0
0.221012 0.239826 0
0.257786 0.240116 0
0.297185 0.239612 0
0.339254 0.238346 0
0.384054 0.236301 0
0.431617 0.233463 0
0.481956 0.229831 0
0.535119 0.225406 0
0.591119 0.220172 0
0.649973 0.214145 0
0.711681 0.207309 0
0.776226 0.19968 0
0.84361 0.191226 0
0.913817 0.181994 0
0.986831 0.171954 0
1 0.161151 0
1 0.149554 0
1 0.137194 0
1 0.124086 0
1 0.110338 0
1 0.0957961 0
1 0.0805676 0
1 0.0646677 0
1 0.0480964 0
1 0.0308843 0
0.00297551 0.252384 0.034699
0.020798 0.257984 0.0208133
0.0422827 0.263523 0
0.0662242 0.268101 0
0.0924086 0.271595 0
0.121096 0.27425 0
0.152361 0.276127 0
0.186236 0.277226 0
0.222782 0.277562 0
0.262028 0.277134 0
0.304021 0.275914 0
0.34876 0.273915 0
0.396307 0.271122 0
0.446662 0.267552 0
0.499855 0.263157 0
0.555856 0.257984 0
0.61471 0.252003 0
0.676371 0.245228 0
0.740856 0.237644 0
0.808133 0.229282 0
0.878172 0.220127 0
0.950957 0.210193 0
1 0.199496 0
1 0.188037 0
1 0.175906 0
1 0.163012 0
1 0.149416 0
1 0.135119 0
1 0.120165 0
1 0.104555 0
1 0.0883192 0
1 0.071458 0
1 0.0540322 0
0 0.296208 0
0.00616464 0.302312 0
0.0273136 0.307103 0
0.0518654 0.310903 0
0.079408 0.313817 0
0.109804 0.315938 0
0.143023 0.317235 0
0.179049 0.317754 0
0.217884 0.317464 0
0.259541 0.316381 0
0.304021 0.314504 0
0.351339 0.311833 0
0.401495 0.308339 0
0.45449 0.304051 0
0.510338 0.29897 0
0.568978 0.29308 0
0.630442 0.286397 0
0.694697 0.27892 0
0.7617 0.270665 0
0.831418 0.261616 0
0.9037 0.25185 0
0.978561 0.241321 0
1 0.23006 0
1 0.218067 0
1 0.205386 0
1 0.19202 0
1 0.177981 0
1 0.163302 0
1 0.147997 0
1 0.132082 0
1 0.115602 0
1 0.098558 0
1 0.0809644 0
0 0.341772 0
0 0.34638 0
0.0075227 0.351492 0
0.0320592 0.355261 0
0.0605936 0.357916 0
0.0924697 0.359625 0
0.127459 0.360464 0
0.165484 0.360449 0
0.206455 0.359594 0
0.250385 0.357916 0
0.297215 0.355398 0
0.346944 0.352071 0
0.399542 0.347936 0
0.454994 0.342977 0
0.513283 0.337224 0
0.574365 0.330663 0
0.638209 0.323323 0
0.704631 0.315221 0
0.773816 0.306355 0
0.845609 0.296727 0
0.919951 0.286366 0
0.99678 0.275288 0
1 0.263508 0
1 0.251041 0
1 0.237919 0
1 0.22414 0
1 0.209751 0
1 0.194751 0
1 0.179171 0
1 0.163043 0
1 0.146365 0
1 0.129183 0
1 0.111498 0
0 0.389883 0
0 0.393378 0
0 0.396841 0
0.00874342 0.401022 0
0.0369726 0.403754 0
0.069749 0.405234 0
0.106157 0.405692 0
0.145907 0.405219 0
0.188815 0.403845 0
0.234806 0.401602 0
0.283787 0.398505 0
0.335744 0.394568 0
0.390585 0.389792 0
0.448295 0.384222 0
0.508736 0.377829 0
0.571969 0.370657 0
0.637888 0.362722 0
0.706432 0.354009 0
0.777569 0.344564 0
0.851209 0.334401 0
0.927291 0.323522 0
1 0.311971 0
1 0.299733 0
1 0.286854 0
1 0.27335 0
1 0.259236 0
1 0.244541 0
1 0.229282 0
1 0.213489 0
1 0.197177 0
1 0.180362 0
1 0.163073 0
1 0.145342 0
0 0.440604 0
0 0.443061 0
0 0.445319 0
0 0.447623 0
0.0104829 0.450828 0
0.0426642 0.452461 0
0.0798505 0.452689 0
0.120912 0.45185 0
0.165438 0.450019 0
0.213245 0.447257 0
0.264179 0.443595 0
0.318105 0.439078 0
0.374945 0.433722 0
0.434638 0.427558 0
0.497108 0.4206 0
0.56228 0.412848 0
0.630076 0.404349 0
0.70042 0.395117 0
0.773266 0.385153 0
0.848493 0.374487 0
0.92607 0.363149 0
1 0.351156 0
1 0.338521 0
1 0.325292 0
1 0.311452 0
1 0.297047 0
1 0.282094 0
1 0.266636 0
1 0.25066 0
1 0.234211 0
1 0.217304 0
1 0.199954 0
1 0.182193 0
0 0.493812 0
0 0.495232 0
0 0.496361 0
0 0.497322 0
0 0.498451 0
0.0132601 0.500664 0
0.0496681 0.501076 0
0.0914321 0.499977 0
0.137148 0.49778 0
0.186419 0.494575 0
0.238972 0.490425 0
0.294621 0.48539 0
0.353246 0.4795 0
0.41471 0.472801 0
0.478935 0.465293 0
0.5458 0.457023 0
0.615244 0.44802 0
0.687144 0.438285 0
0.761456 0.427848 0
0.838056 0.416754 0
0.916899 0.405005 0
0.997864 0.392615 0
1 0.379644 0
1 0.366079 0
1 0.351965 0
1 0.337316 0
1 0.322148 0
1 0.306508 0
1 0.290394 0
1 0.273838 0
1 0.256855 0
1 0.239475 0
1 0.221729 0
0 0.549264 0
0 0.549599 0
0 0.549599 0
0 0.549325 0
0 0.548943 0
0 0.548913 0
0.0177768 0.550118 0
0.0586252 0.549218 0
0.104845 0.546822 0
0.155123 0.543267 0
0.208972 0.538705 0
0.266056 0.533211 0
0.326162 0.526848 0
0.389151 0.519646 0
0.454887 0.511666 0
0.523232 0.502922 0
0.594079 0.493446 0
0.667323 0.483268 0
0.742885 0.472404 0
0.820645 0.460914 0
0.900542 0.448798 0
0.982452 0.436072 0
1 0.422782 0
1 0.408942 0
1 0.394583 0
1 0.379721 0
1 0.364385 0
1 0.348592 0
1 0.332372 0
1 0.31574 0
1 0.298726 0
1 0.281331 0
1 0.2636 0
0 0.606577 0
0 0.605768 0
0 0.604578 0
0 0.603113 0
0 0.60148 0
0 0.599878 0
0 0.598795 0
0.0243992 0.598962 0
0.069749 0.596704 0
0.120394 0.592981 0
0.175051 0.588098 0
0.233219 0.582238 0
0.29453 0.575448 0
0.35877 0.567834 0
0.425757 0.559411 0
0.495323 0.55024 0
0.567361 0.540337 0
0.641749 0.529778 0
0.718349 0.518547 0
0.797086 0.506691 0
0.877836 0.494255 0
0.960525 0.481239 0
1 0.467674 0
1 0.453605 0
1 0.439033 0
1 0.424002 0
1 0.408515 0
1 0.392599 0
1 0.376303 0
1 0.359609 0
1 0.342565 0
1 0.32517 0
1 0.307469 0
0 0.665461 0
0 0.663462 0
0 0.661097 0
0 0.658427 0
0 0.655543 0
0 0.652598 0
0 0.649836 0
0 0.647883 0
0.0335393 0.646906 0
0.0833448 0.643305 0
0.138231 0.63827 0
0.197024 0.63212 0
0.25919 0.62501 0
0.324392 0.617029 0
0.39237 0.60824 0
0.462943 0.598703 0
0.535943 0.588449 0
0.611246 0.577523 0
0.688701 0.565972 0
0.768215 0.553811 0
0.849668 0.541085 0
0.932967 0.52781 0
1 0.514031 0
1 0.499748 0
1 0.485008 0
1 0.469825 0
1 0.454215 0
1 0.438224 0
1 0.421851 0
1 0.405127 0
1 0.388083 0
1 0.370718 0
1 0.353063 0
0 0.72549 0
0 0.722301 0
0 0.71873 0
0 0.71487 0
0 0.710765 0
0 0.706569 0
0 0.702419 0
0 0.698634 0
0.000534066 0.696178 0
0.0454566 0.693782 0
0.0995499 0.688853 0
0.158419 0.682582 0
0.221042 0.675242 0
0.28687 0.666972 0
0.355566 0.657877 0
0.426886 0.648035 0
0.500633 0.637476 0
0.576638 0.626261 0
0.654765 0.61442 0
0.73489 0.602014 0
0.816876 0.589044 0
0.900618 0.575555 0
0.986038 0.561563 0
1 0.547112 0
1 0.532235 0
1 0.51693 0
1 0.501228 0
1 0.485176 0
1 0.468757 0
1 0.452033 0
1 0.434989 0
1 0.41767 0
1 0.400076 0
0 0.786328 0
0 0.781918 0
0 0.777157 0
0 0.772107 0
0 0.766827 0
0 0.761425 0
0 0.756024 0
0 0.750835 0
0 0.746227 0
0.00924697 0.743679 0
0.0602731 0.739452 0
0.118395 0.733272 0
0.180957 0.725826 0
0.247044 0.717388 0
0.316167 0.708064 0
0.387976 0.697978 0
0.462242 0.687175 0
0.538766 0.675715 0
0.617365 0.663645 0
0.697917 0.651011 0
0.78027 0.637842 0
0.864332 0.62417 0
0.949981 0.61004 0
1 0.595453 0
1 0.580453 0
1 0.565057 0
1 0.549294 0
1 0.533196 0
1 0.516762 0
1 0.500038 0
1 0.483024 0
1 0.465751 0
1 0.448234 0
0 0.847593 0
0 0.841993 0
0 0.836057 0
0 0.829847 0
0 0.823423 0
0 0.816876 0
0 0.810315 0
0 0.803891 0
0 0.797818 0
0 0.79263 0
0.0221561 0.789563 0
0.0779889 0.783871 0
0.139803 0.776516 0
0.205722 0.768017 0
0.274937 0.758556 0
0.346975 0.748302 0
0.42153 0.737301 0
0.498344 0.725658 0
0.577249 0.713405 0
0.658061 0.700603 0
0.740642 0.687266 0
0.824872 0.673457 0
0.910628 0.65919 0
0.997818 0.644511 0
1 0.629419 0
1 0.613962 0
1 0.598169 0
1 0.58204 0
1 0.565606 0
1 0.548913 0
1 0.531945 0
1 0.514733 0
1 0.497307 0
0 0.908995 0
0 0.90222 0
0 0.89514 0
0 0.8878 0
0 0.880278 0
0 0.872648 0
0 0.865003 0
0 0.85745 0
0 0.850156 0
0 0.843427 0
0 0.83801 0
0.0384985 0.834012 0
0.098497 0.827039 0
0.163668 0.818601 0
0.232593 0.809125 0
0.304585 0.798764 0
0.379187 0.787655 0
0.456107 0.775876 0
0.535119 0.7635 0
0.616022 0.750561 0
0.69868 0.737102 0
0.78294 0.723186 0
0.868681 0.708827 0
0.955795 0.694072 0
1 0.678935 0
1 0.663432 0
1 0.647623 0
1 0.631495 0
1 0.615091 0
1 0.598428 0
1 0.581521 0
1 0.564401 0
1 0.547066 0
0 0.970275 0
0 0.962356 0
0 0.954162 0
0 0.945754 0
0 0.937194 0
0 0.928527 0
0 0.91986 0
0 0.911269 0
0 0.902892 0
0 0.894926 0
0 0.887755 0
0.00267033 0.882918 0
0.0580301 0.877073 0
0.121675 0.86894 0
0.189853 0.859556 0
0.261448 0.849195 0
0.335836 0.838026 0
0.41265 0.826169 0
0.4916 0.813703 0
0.572442 0.800687 0
0.655024 0.787152 0
0.739193 0.773175 0
0.824796 0.758755 0
0.911742 0.743954 0
0.999893 0.728786 0
1 0.713283 0
1 0.697459 0
1 0.681361 0
1 0.665003 0
1 0.648402 0
1 0.631571 0
1 0.614542 0
1 0.59733 0
0 1 0
0 1 0
0 1 0
0 1 0
0 0.993927 0
0 0.984298 0
0 0.97467 0
0 0.965118 0
0 0.955764 0
0 0.946746 0
0 0.938308 0
0 0.930983 0
0.0198825 0.926223 0
0.0805066 0.918791 0
0.147356 0.909651 0
0.218173 0.899382 0
0.292103 0.888243 0
0.368582 0.876371 0
0.447272 0.863874 0
0.527901 0.850813 0
0.610269 0.837247 0
0.694209 0.823224 0
0.779568 0.808789 0
0.866224 0.793973 0
0.954055 0.778805 0
1 0.763317 0
1 0.747524 0
1 0.731472 0
1 0.71516 0
1 0.698634 0
1 0.681895 0
1 0.664988 0
1 0.647883 0
0 1 0
0 1 0
0 1 0
0 1 0
0 1 0
0 1 0
0 1 0
0 1 0
0 1 0
0 0.998627 0
0 0.989151 0
0 0.980453 0
0 0.973404 0
0.0411841 0.967865 0
0.105745 0.959228 0
0.175341 0.949187 0
0.248478 0.938155 0
0.324407 0.926329 0
0.402655 0.913848 0
0.482902 0.900801 0
0.564935 0.887236 0
0.648524 0.873213 0
0.733516 0.858778 0
0.819791 0.843976 0
0.90721 0.828824 0
0.995666 0.813382 0
1 0.797635 0
1 0.781643 0
1 0.765423 0
1 0.748989 0
1 0.732357 0
1 0.715557 0
1 0.698573 0
0 1 0
0 1 0
0 1 0
0 1 0
0 1 0
0 1 0
0 1 0
0 1 0
0 1 0
0 1 0
0 1 0
0 1 0
0 1 0
0.00556954 1 0
0.0657511 1 0
0.133501 0.998428 0
0.205493 0.98761 0
0.280598 0.975906 0
0.358221 0.9635 0
0.437934 0.950484 0
0.519463 0.936965 0
0.602594 0.922972 0
0.687129 0.908583 0
0.772915 0.893812 0
0.859831 0.878721 0
0.947753 0.863325 0
1 0.847669 0
1 0.831754 0
1 0.815625 0
1 0.799298 0
1 0.782773 0
1 0.766079 0
1 0.749218 0
0 1 0
0 1 0
0 1 0
0 1 0
0 1 0
0 1 0
0 1 0
0 1 0
0 1 0
0 1 0
0 1 0
0 1 0
0 1 0
0 1 0
0.0283513 1 0
0.0931716 1 0
0.163577 1 0
0.237598 1 0
0.314382 1 0
0.393393 0.999771 0
0.474311 0.986328 0
0.556848 0.972396 0
0.640803 0.958068 0
0.726024 0.943374 0
0.81236 0.928374 0
0.899718 0.913085 0
0.987991 0.89752 0
1 0.881743 0
1 0.865721 0
1 0.8495 0
1 0.833097 0
1 0.81651 0
1 0.799756 0
0 1 0
0 1 0
0 1 0
0 1 0
0 1 0
0 1 0
0 1 0
0 1 0
0 1 0
0 1 0
0 1 0
0 1 0
0 1 0
0 1 0
0 1 0
0.0550088 1 0
0.123171 1 0
0.195773 1 0
0.271504 1 0
0.34966 1 0
0.429801 1 0
0.51162 1 0
0.594888 1 0
0.679438 0.992676 0
0.765164 0.977813 0
0.851911 0.962646 0
0.93962 0.947219 0
1 0.931548 0
1 0.915648 0
1 0.899535 0
1 0.883253 0
1 0.866789 0
1 0.850172 0
0 1 0
0 1 0
0 1 0
0 1 0
0 1 0
0 1 0
0 1 0
0 1 0
0 1 0
