assets/luts/lut_1.rabbit-5639615.cube
TITLE "Generated by Resolve"
LUT_3D_SIZE 9
0 0 0
0.0225834 0.0251469 0.0571145
0.0715953 0.0450446 0.0887312
0.149722 0.0576791 0.106874
0.261555 0.0616617 0.111971
0.412024 0.0556344 0.102724
0.606043 0.038468 0.0762036
0.84863 0.00955215 0.0235142
1 0 0
0.0317388 0.108003 0.104341
0.0898756 0.128359 0.105837
0.179934 0.140703 0.0933394
0.307012 0.143908 0.0627451
0.477394 0.138552 0
0.691585 0.120409 0
0.95198 0.0886091 0
1 0.0433204 0
1 0 0
0.00297551 0.252384 0.034699
0.0924086 0.271595 0
0.222782 0.277562 0
0.396307 0.271122 0
0.61471 0.252003 0
0.878172 0.220127 0
1 0.175906 0
1 0.120165 0
1 0.0540322 0
0 0.440604 0
0.0104829 0.450828 0
0.165438 0.450019 0
0.374945 0.433722 0
0.630076 0.404349 0
0.92607 0.363149 0
1 0.311452 0
1 0.25066 0
1 0.182193 0
0 0.665461 0
0 0.655543 0
0.0335393 0.646906 0
0.25919 0.62501 0
0.535943 0.588449 0
0.849668 0.541085 0
1 0.485008 0
1 0.421851 0
1 0.353063 0
0 0.908995 0
0 0.880278 0
0 0.850156 0
0.098497 0.827039 0
0.379187 0.787655 0
0.69868 0.737102 0
1 0.678935 0
1 0.615091 0
1 0.547066 0
0 1 0
0 1 0
0 1 0
0 1 0
0.205493 0.98761 0
0.519463 0.936965 0
0.859831 0.878721 0
1 0.815625 0
1 0.749218 0
0 1 0
0 1 0
0 1 0
0 1 0
0.0484932 1 0
0.343038 1 0
0.672206 1 0
1 1 0
1 0.950256 0
0 1 0
0 1 0
0 1 0
0 1 0
0 1 0
0.184726 1 0
0.498085 1 0
0.831785 1 0
1 1 0
0.00195315 0.00607309 0.027985
0.0277867 0.0292363 0.0941939
0.0793317 0.0467079 0.14136
0.160357 0.0566567 0.176394
0.275578 0.0576181 0.200244
0.429801 0.0481575 0.212589
0.627741 0.0270085 0.212619
0.874006 0 0.199603
1 0 0.171054
0.0294957 0.110094 0.180575
0.0891432 0.127871 0.201999
0.181094 0.137148 0.212787
0.310201 0.136629 0.211856
0.480812 0.125124 0.197833
0.696559 0.101762 0.168978
0.959854 0.066041 0.122866
1 0.0181582 0.0541848
1 0 0
0 0.247807 0.197574
0.0780499 0.261357 0.185855
0.208774 0.263203 0.158297
0.38436 0.25359 0.112627
0.606607 0.232914 0.0396582
0.876799 0.202564 0
1 0.157565 0
1 0.100847 0
1 0.033875 0
0 0.4271 0.0717632
0 0.436454 0
0.148959 0.43714 0
0.361196 0.42005 0
0.618906 0.389624 0
0.917021 0.347417 0
1 0.294865 0
1 0.233448 0
1 0.164614 0
0 0.65594 0
0 0.643915 0
0.018555 0.632929 0
0.242634 0.611017 0
0.520211 0.573846 0
0.834775 0.525948 0
1 0.469474 0
1 0.406134 0
1 0.337331 0
0 0.898482 0
0 0.867964 0
0 0.836042 0
0.0831159 0.811872 0
0.36231 0.772732 0
0.681498 0.722164 0
1 0.664027 0
1 0.60032 0
1 0.53257 0
0 1 0
0 1 0
0 1 0
0 1 0
0.190295 0.972183 0
0.502724 0.922026 0
0.84213 0.864164 0
1 0.80148 0
1 0.73547 0
0 1 0
0 1 0
0 1 0
0 1 0
0.0375219 1 0
0.328176 1 0
0.655833 1 0
1 1 0
1 0.937057 0
0 1 0
0 1 0
0 1 0
0 1 0
0 1 0
0.172824 1 0
0.483818 1 0
0.815991 1 0
1 1 0
0.00444038 0.0115663 0.0596628
0.0328222 0.0327306 0.137118
0.0869917 0.0479133 0.198077
0.171115 0.0553292 0.247852
0.289967 0.0534829 0.28748
0.448325 0.0409552 0.316838
0.650874 0.0164187 0.335439
0.90193 0 0.342931
1 0 0.336996
0.0272526 0.112032 0.25774
0.0886549 0.127489 0.295628
0.182956 0.134142 0.324163
0.31487 0.130678 0.342596
0.488609 0.115938 0.349981
0.707515 0.0890211 0.345403
0.973632 0.0494087 0.328084
1 0 0.297658
1 0 0.253956
0 0.244785 0.334966
0.0690166 0.25626 0.346654
0.200977 0.254963 0.345098
0.377935 0.241611 0.330892
0.600595 0.216052 0.303487
0.868559 0.178454 0.262318
1 0.12961 0.206958
1 0.0705119 0.136187
1 0.0027924 0.0462959
0 0.418479 0.303777
0 0.419959 0.281254
0.124773 0.416175 0.252201
0.337057 0.395941 0.204135
0.596246 0.363546 0.138628
0.8972 0.321202 0.0489357
1 0.272251 0
1 0.211688 0
1 0.143282 0
0 0.635447 0.162539
0 0.620935 0.0946517
0 0.609308 0.00326543
0.220813 0.59144 0
0.50016 0.554833 0
0.816114 0.507134 0
1 0.450813 0
1 0.387655 0
1 0.319158 0
0 0.882841 0
0 0.851484 0
0 0.818433 0
0.0653391 0.793484 0
0.342916 0.755032 0
0.661967 0.704768 0
1 0.646906 0
1 0.583566 0
1 0.516258 0
0 1 0
0 1 0
0 1 0
0 0.987732 0
0.17351 0.954711 0
0.484352 0.905257 0
0.822843 0.847929 0
1 0.785779 0
1 0.720287 0
0 1 0
0 1 0
0 1 0
0 1 0
0.0258946 1 0
0.312078 1 0
0.638254 1 0
0.983032 0.985901 0
1 0.922667 0
0 1 0
0 1 0
0 1 0
0 1 0
0 1 0
0.160021 1 0
0.468574 1 0
0.799237 1 0
1 1 0
0.00686656 0.016434 0.0972457
0.0376593 0.0356756 0.185595
0.0945296 0.0486458 0.259297
0.181872 0.0536049 0.322652
0.304494 0.049073 0.376608
0.467155 0.0335851 0.421103
0.674556 0.00582895 0.455772
0.930388 0 0.479942
1 0 0.491478
0.0248569 0.113649 0.337697
0.0881056 0.126925 0.390478
0.184924 0.131106 0.434653
0.319875 0.124941 0.469535
0.497032 0.107286 0.494224
0.719493 0.0773175 0.507866
0.989105 0.0345617 0.509804
1 0 0.500252
1 0 0.477699
0 0.24239 0.467445
0.0608988 0.251804 0.497475
0.194491 0.247944 0.514885
0.373648 0.231785 0.5205
0.59855 0.203296 0.514031
0.868391 0.162737 0.495354
1 0.110948 0.464607
1 0.0487984 0.422385
1 0 0.369665
0 0.412543 0.500694
0 0.410117 0.498756
0.109697 0.403998 0.493599
0.322118 0.380941 0.471672
0.581323 0.345312 0.436942
0.880964 0.298878 0.390616
1 0.243137 0.333577
1 0.179614 0.266438
1 0.109758 0.189441
0 0.623819 0.440772
0 0.604807 0.405783
0 0.585626 0.371237
0.191012 0.563516 0.333654
0.46891 0.524544 0.27808
0.78468 0.475608 0.209842
1 0.419226 0.128481
1 0.357733 0.0273136
1 0.29427 0
0 0.857557 0.300938
0 0.823041 0.238468
0 0.7879 0.173404
0.0356146 0.762158 0.111666
0.313878 0.727413 0.0135653
0.636378 0.681224 0
0.982544 0.624949 0
1 0.562783 0
1 0.496498 0
0 1 0.0821088
0 1 0
0 1 0
0 0.965347 0
0.153231 0.933288 0
0.462806 0.8851 0
0.800717 0.828717 0
1 0.767437 0
1 0.702724 0
0 1 0
0 1 0
0 1 0
0 1 0
0.0131838 1 0
0.293889 1 0
0.618692 1 0
0.962463 0.968933 0
1 0.906477 0
0 1 0
0 1 0
0 1 0
0 1 0
0 1 0
0.145739 1 0
0.451804 1 0
0.781033 1 0
1 1 0
0.00914015 0.0207218 0.140475
0.042298 0.0380713 0.239399
0.10193 0.0488746 0.325185
0.192569 0.0514534 0.401358
0.319036 0.0442664 0.468757
0.486137 0.0258946 0.527291
0.698695 0 0.576867
0.959075 0 0.615579
1 0 0.642283
0.0222629 0.114916 0.421225
0.0874189 0.12607 0.487922
0.186831 0.127886 0.546548
0.324926 0.119112 0.596338
0.505623 0.0987106 0.636378
0.731807 0.0659037 0.665705
1 0.0202792 0.683696
1 0 0.690471
1 0 0.683711
0 0.240101 0.599176
0.0531777 0.247471 0.645243
0.188495 0.241306 0.678843
0.370031 0.222644 0.70071
0.597421 0.191623 0.710567
0.869261 0.148684 0.708141
1 0.0945602 0.693736
1 0.0303655 0.667979
1 0 0.632441
0 0.407446 0.686656
0 0.401602 0.700298
0.0966964 0.393469 0.711955
0.309728 0.368414 0.706752
0.569909 0.330709 0.688579
0.870176 0.282277 0.658976
1 0.224689 0.619165
1 0.159411 0.570321
1 0.0878614 0.513558
0 0.614969 0.682185
0 0.592844 0.663035
0 0.569955 0.643915
0.172732 0.546715 0.624857
0.449561 0.50605 0.588434
0.764294 0.455222 0.541466
1 0.396658 0.486046
1 0.332113 0.423484
1 0.263005 0.354757
0 0.843809 0.599741
0 0.806287 0.556054
0 0.767941 0.512551
0.0146487 0.738338 0.478279
0.285512 0.70016 0.435416
0.602747 0.649531 0.379477
0.946807 0.591775 0.315145
1 0.529152 0.24387
1 0.463249 0.165988
0 1 0.464012
0 1 0.403647
0 0.975891 0.344289
0 0.931121 0.289235
0.120165 0.898573 0.244923
0.427909 0.851362 0.182956
0.765759 0.796597 0.107073
1 0.738796 0.00489815
1 0.678706 0
0 1 0.292699
0 1 0.21915
0 1 0.145022
0 1 0.0680247
0 1 0
0.270008 1 0
0.594446 1 0
0.937881 0.94786 0
1 0.886717 0
0 1 0.0738384
0 1 0
0 1 0
0 1 0
0 1 0
0.128283 1 0
0.432105 1 0
0.760174 1 0
1 1 0
0.0112154 0.0244602 0.18909
0.0467384 0.0399481 0.298344
0.109163 0.0486305 0.395773
0.203159 0.0488136 0.48426
0.333577 0.0390173 0.564492
0.505211 0.0178225 0.636362
0.722652 0 0.699596
0.987747 0 0.751888
1 0 0.792355
0.0194553 0.11577 0.508644
0.0865339 0.124865 0.588647
0.188602 0.124376 0.660899
0.3299 0.1131 0.724605
0.514183 0.0900435 0.778729
0.744137 0.0545205 0.822248
1 0.0061799 0.854536
1 0 0.875044
1 0 0.881453
0 0.237766 0.731991
0.0457008 0.243015 0.792554
0.182681 0.234745 0.840742
0.366659 0.213764 0.876875
0.596613 0.180423 0.900679
0.87071 0.135317 0.911711
1 0.0792248 0.910384
1 0.0132906 0.897322
1 0 0.874205
0 0.402686 0.867781
0 0.393713 0.894499
0.0848249 0.383581 0.919753
0.298466 0.356893 0.927886
0.559762 0.317464 0.922255
0.860899 0.267475 0.904616
1 0.208515 0.87631
1 0.142092 0.838621
1 0.0695659 0.792828
0 0.607233 0.908293
0 0.58233 0.90071
0 0.556374 0.892149
0.157137 0.532204 0.88513
0.43328 0.490532 0.860105
0.747646 0.438621 0.824109
1 0.379095 0.779507
1 0.313695 0.72784
1 0.243824 0.670359
0 0.832563 0.865141
0 0.792721 0.831739
0 0.752132 0.798215
0.000701915 0.719646 0.773083
0.2663 0.681758 0.742535
0.581827 0.630426 0.698268
0.924315 0.571878 0.64625
1 0.5084 0.58854
1 0.44152 0.526482
0 1 0.765255
0 1 0.715312
0 0.957046 0.666865
0 0.910185 0.623392
0.100023 0.876249 0.59292
0.403983 0.828397 0.548379
0.738735 0.772274 0.494987
1 0.711452 0.435752
1 0.647456 0.372076
0 1 0.632959
0 1 0.573709
0 1 0.517189
0 1 0.465217
0 1 0.422995
0.237873 1 0.385458
0.559319 0.971923 0.332692
0.900969 0.914321 0.273503
1 0.853819 0.20943
0 1 0.484794
0 1 0.420142
0 1 0.35816
0 1 0.300359
0 1 0.249378
0.0979171 1 0.212009
0.39942 1 0.158541
0.727214 1 0.0902113
1 1 0
0.013077 0.0276951 0.242893
0.0509651 0.0413214 0.362325
0.116228 0.0478828 0.471061
0.213642 0.045716 0.571466
0.348058 0.033341 0.664103
0.524346 0.009308 0.748837
0.746487 0 0.824842
1 0 0.889891
1 0 0.943069
0.0164645 0.116182 0.600183
0.0854353 0.123293 0.693004
0.190173 0.120531 0.778302
0.334722 0.106798 0.855177
0.522622 0.081178 0.922469
0.756374 0.043061 0.979095
1 0 1
1 0 1
1 0 1
0 0.235279 0.866789
0.0384222 0.238331 0.940719
0.176928 0.228092 1
0.363333 0.204944 1
0.59585 0.169451 1
0.872221 0.122362 1
1 0.0644999 1
1 0 1
1 0 1
0 0.398077 1
0 0.38613 1
0.0737926 0.373983 1
0.287861 0.345892 1
0.550286 0.304997 1
0.852354 0.253666 1
1 0.193576 1
1 0.126238 1
1 0.0530098 1
0 0.600092 1
0 0.572641 1
0 0.543938 1
0.14313 0.518807 1
0.41854 0.476417 1
0.732647 0.423743 1
1 0.363561 1
1 0.297627 1
1 0.227375 0.951598
0 0.822522 1
0 0.780636 1
0 0.738109 1
0 0.702296 1
0.24976 0.665705 1
0.563806 0.614115 0.980819
0.905119 0.555245 0.935103
1 0.491508 0.883482
1 0.424475 0.827375
0 1 1
0 0.993988 0.99411
0 0.941146 0.951324
0 0.89276 0.913024
0.0844434 0.857893 0.888045
0.385199 0.81033 0.850019
0.718029 0.754162 0.802853
1 0.693156 0.75021
1 0.628931 0.693629
0 1 0.926055
0 1 0.872175
0 1 0.820951
0 1 0.774456
0 1 0.737469
0.219104 1 0.708003
0.537865 0.951736 0.663401
0.877302 0.893919 0.612879
1 0.833082 0.558648
0 1 0.797101
0 1 0.738857
0 1 0.683803
0 1 0.633433
0 1 0.590478
0.0795453 1 0.563012
0.376608 1 0.523674
0.700984 1 0.475517
1 1 0.421851
0.0147097 0.0304112 0.301717
0.054963 0.0421912 0.43125
0.12311 0.0466468 0.551064
0.223987 0.0421454 0.663111
0.362478 0.0271763 0.767803
0.543603 0.000289921 0.865125
0.770184 0 0.953063
1 0 1
1 0 1
0.0132906 0.116167 0.695933
0.0840772 0.121324 0.801221
0.191516 0.116335 0.899092
0.33933 0.100206 0.988525
0.530877 0.0720989 1
0.768444 0.0314488 1
1 0 1
1 0 1
1 0 1
0 0.232578 1
0.0313878 0.233356 1
0.171176 0.221302 1
0.359976 0.196094 1
0.595041 0.158587 1
0.873655 0.109667 1
1 0.0501717 1
1 0 1
1 0 1
0 0.393484 1
0 0.378714 1
0.063508 0.364477 1
0.277729 0.335225 1
0.541222 0.293019 1
0.844221 0.240513 1
1 0.179446 1
1 0.11136 1
1 0.0375525 1
0 0.593286 1
0 0.563439 1
0 0.53225 1
0.130297 0.506081 1
0.404807 0.463188 1
0.718685 0.409918 1
1 0.349233 1
1 0.282948 1
1 0.212482 1
0 0.813214 1
0 0.769467 1
0 0.7252 1
0 0.686793 1
0.234852 0.650965 1
0.547417 0.599313 1
0.887648 0.540322 1
1 0.476539 1
1 0.409537 1
0 1 1
0 0.98088 1
0 0.926818 1
0 0.877134 1
0.0713512 0.841352 1
0.36875 0.794385 1
0.699779 0.738399 1
1 0.67747 1
1 0.613321 0.977829
0 1 1
0 1 1
0 1 1
0 1 1
0 1 1
0.203586 0.986786 0.991745
0.519951 0.934905 0.950622
0.857557 0.877333 0.903197
1 0.816678 0.852003
0 1 1
0 1 1
0 1 0.969223
0 1 0.921324
0 1 0.880522
0.0660716 1 0.855451
0.359243 1 0.820264
0.681407 1 0.776394
1 1 0.727642
0.0161288 0.032639 0.365484
0.058732 0.0425879 0.505028
0.129793 0.0449378 0.635737
0.23418 0.0380713 0.759228
0.376822 0.0205386 0.875715
0.562539 0 0.984955
0.793667 0 1
1 0 1
1 0 1
0.00999466 0.115679 0.795956
0.0825055 0.118929 0.913436
0.192615 0.111772 1
0.343725 0.0932937 1
0.538918 0.0627451 1
0.780377 0.0196078 1
1 0 1
1 0 1
1 0 1
0 0.229664 1
0.0246586 0.227985 1
0.165408 0.214313 1
0.356527 0.187167 1
0.593973 0.147829 1
0.874907 0.0971237 1
1 0.0361181 1
1 0 1
1 0 1
0 0.388861 1
0 0.371389 1
0.0539712 0.354925 1
0.267933 0.324742 1
0.532418 0.281361 1
0.836301 0.227817 1
1 0.165911 1
1 0.0971695 1
1 0.0229038 1
0 0.586694 1
0 0.554574 1
0 0.521065 1
0.118425 0.493782 1
0.391852 0.450553 1
0.70544 0.396826 1
1 0.335775 1
1 0.269245 1
1 0.198672 1
0 0.804425 1
0 0.758923 1
0 0.713039 1
0 0.67248 1
0.221195 0.63711 1
0.532204 0.585519 1
0.871351 0.526543 1
1 0.462806 1
1 0.395941 1
0 1 1
0 0.968704 1
0 0.913542 1
0 0.862715 1
0.0601205 0.825925 1
0.353826 0.779751 1
0.68307 0.724041 1
1 0.663294 1
1 0.599359 1
0 1 1
0 1 1
0 1 1
0 1 1
0 1 1
0.190051 0.971191 1
0.50399 0.919844 1
0.839841 0.862669 1
1 0.802319 1
0 1 1
0 1 1
0 1 1
0 1 1
0 1 1
0.0550851 1 1
0.344213 1 1
0.664317 1 1
1 1 1
