assets/luts/lut_1.rabbit-5639615.cube
TITLE "Generated by Resolve"
LUT_3D_SIZE 5
0 0 0
0.0715953 0.0450446 0.0887312
0.261555 0.0616617 0.111971
0.606043 0.038468 0.0762036
1 0 0
0.00297551 0.252384 0.034699
0.222782 0.277562 0
0.61471 0.252003 0
1 0.175906 0
1 0.0540322 0
0 0.665461 0
0.0335393 0.646906 0
0.535943 0.588449 0
1 0.485008 0
1 0.353063 0
0 1 0
0 1 0
0.205493 0.98761 0
0.859831 0.878721 0
1 0.749218 0
0 1 0
0 1 0
0 1 0
0.498085 1 0
1 1 0
0.00444038 0.0115663 0.0596628
0.0869917 0.0479133 0.198077
0.289967 0.0534829 0.28748
0.650874 0.0164187 0.335439
1 0 0.336996
0 0.244785 0.334966
0.200977 0.254963 0.345098
0.600595 0.216052 0.303487
1 0.12961 0.206958
1 0.0027924 0.0462959
0 0.635447 0.162539
0 0.609308 0.00326543
0.50016 0.554833 0
1 0.450813 0
1 0.319158 0
0 1 0
0 1 0
0.17351 0.954711 0
0.822843 0.847929 0
1 0.720287 0
0 1 0
0 1 0
0 1 0
0.468574 1 0
1 1 0
0.00914015 0.0207218 0.140475
0.10193 0.0488746 0.325185
0.319036 0.0442664 0.468757
0.698695 0 0.576867
1 0 0.642283
0 0.240101 0.599176
0.188495 0.241306 0.678843
0.597421 0.191623 0.710567
1 0.0945602 0.693736
1 0 0.632441
0 0.614969 0.682185
0 0.569955 0.643915
0.449561 0.50605 0.588434
1 0.396658 0.486046
1 0.263005 0.354757
0 1 0.464012
0 0.975891 0.344289
0.120165 0.898573 0.244923
0.765759 0.796597 0.107073
1 0.678706 0
0 1 0.0738384
0 1 0
0 1 0
0.432105 1 0
1 1 0
0.013077 0.0276951 0.242893
0.116228 0.0478828 0.471061
0.348058 0.033341 0.664103
0.746487 0 0.824842
1 0 0.943069
0 0.235279 0.866789
0.176928 0.228092 1
0.59585 0.169451 1
1 0.0644999 1
1 0 1
0 0.600092 1
0 0.543938 1
0.41854 0.476417 1
1 0.363561 1
1 0.227375 0.951598
0 1 1
0 0.941146 0.951324
0.0844434 0.857893 0.888045
0.718029 0.754162 0.802853
1 0.628931 0.693629
0 1 0.797101
0 1 0.683803
0 1 0.590478
0.376608 1 0.523674
1 1 0.421851
0.0161288 0.032639 0.365484
0.129793 0.0449378 0.635737
0.376822 0.0205386 0.875715
0.793667 0 1
1 0 1
0 0.229664 1
0.165408 0.214313 1
0.593973 0.147829 1
1 0.0361181 1
1 0 1
0 0.586694 1
0 0.521065 1
0.391852 0.450553 1
1 0.335775 1
1 0.198672 1
0 1 1
0 0.913542 1
0.0601205 0.825925 1
0.68307 0.724041 1
1 0.599359 1
0 1 1
0 1 1
0 1 1
0.344213 1 1
1 1 1
