assets/luts/Ramazan-Kocaturk-cinematic-dis-cekim-122.cube
LUT_3D_SIZE 6
0.034078 0.046275 0.053410
0.133219 0.082195 0.074034
0.299382 0.103838 0.072502
0.457737 0.134124 0.072472
0.635962 0.170675 0.077156
0.801514 0.212465 0.081117
0.048844 0.153882 0.062756
0.142546 0.145146 0.061728
0.330402 0.147355 0.054142
0.498345 0.195565 0.047800
0.679713 0.258815 0.043255
0.849596 0.285724 0.055678
0.040763 0.234011 0.051861
0.180503 0.248015 0.046876
0.362344 0.265429 0.040414
0.554034 0.278241 0.034209
0.746866 0.333952 0.032313
0.918428 0.364416 0.042234
0.079262 0.319540 0.039732
0.239267 0.345145 0.034461
0.421053 0.405342 0.027388
0.616189 0.468758 0.029427
0.797686 0.457548 0.034649
0.955586 0.445571 0.037669
0.132955 0.417959 0.035479
0.297459 0.442303 0.038413
0.473179 0.516181 0.033363
0.680823 0.638561 0.024696
0.841453 0.700131 0.036505
0.961081 0.616451 0.041805
0.274408 0.685851 0.013517
0.368619 0.715326 0.012527
0.521789 0.777644 0.009628
0.694697 0.831298 0.010363
0.850414 0.856918 0.013413
0.964917 0.849365 0.030241
0.049421 0.106294 0.127776
0.183772 0.100733 0.120196
0.350959 0.122964 0.126820
0.516741 0.139194 0.117729
0.682022 0.169786 0.116939
0.841542 0.203404 0.108558
0.049219 0.143429 0.139199
0.115840 0.154250 0.153162
0.323659 0.175116 0.145782
0.511835 0.173952 0.124211
0.692676 0.208966 0.119769
0.859915 0.244774 0.111557
0.037585 0.259363 0.133753
0.040374 0.295723 0.065199
0.363886 0.293758 0.053925
0.568909 0.306203 0.052323
0.747064 0.359044 0.073823
0.907153 0.392877 0.084418
0.031960 0.312378 0.123554
0.113894 0.384686 0.042253
0.398985 0.426143 0.048151
0.618894 0.492260 0.029061
0.821252 0.478265 0.043799
0.958742 0.470651 0.041299
0.027938 0.355632 0.151237
0.171854 0.461886 0.055965
0.449341 0.534035 0.069330
0.675428 0.654302 0.038064
0.837453 0.713640 0.036184
0.960173 0.630886 0.048502
0.100198 0.668110 0.011792
0.307167 0.721141 0.014214
0.489237 0.789220 0.010709
0.681639 0.848606 0.009841
0.851176 0.870661 0.011641
0.965347 0.861763 0.027309
0.045221 0.181876 0.205773
0.139327 0.163293 0.223877
0.406357 0.191728 0.186161
0.584076 0.216982 0.176193
0.727476 0.237592 0.173372
0.866084 0.257192 0.154094
0.042861 0.204055 0.217668
0.041353 0.219266 0.243723
0.380035 0.236878 0.230660
0.571133 0.251611 0.214596
0.730089 0.258311 0.199510
0.875892 0.266728 0.167116
0.036436 0.262495 0.241284
0.033101 0.292044 0.267280
0.290103 0.343493 0.306120
0.535989 0.368737 0.297234
0.741087 0.366688 0.267813
0.909468 0.351242 0.211006
0.022656 0.418797 0.318604
0.023662 0.405882 0.278055
0.228690 0.465486 0.182766
0.603647 0.526568 0.151891
0.810400 0.509934 0.179047
0.967007 0.509713 0.153400
0.020522 0.459634 0.302869
0.021289 0.446089 0.270875
0.272518 0.565901 0.144625
0.625250 0.667123 0.150229
0.830137 0.731090 0.081085
0.969908 0.636701 0.107950
-0.004692 0.701880 0.216370
-0.003735 0.710924 0.084735
0.391933 0.825406 0.028922
0.634567 0.882870 0.066708
0.835196 0.890801 0.056878
0.963580 0.875261 0.043144
0.035991 0.259337 0.283335
0.084167 0.268651 0.294515
0.379122 0.298709 0.286471
0.644733 0.297937 0.191256
0.781826 0.326319 0.202797
0.893210 0.331547 0.210398
0.034716 0.271535 0.290172
0.032414 0.291325 0.323181
0.326378 0.294616 0.346569
0.628952 0.332955 0.254039
0.777179 0.350534 0.263368
0.902028 0.342074 0.242105
0.030589 0.312161 0.322989
0.028408 0.335051 0.346791
0.163226 0.385015 0.415114
0.576936 0.415338 0.368490
0.759309 0.425537 0.360707
0.911839 0.388389 0.299718
0.024615 0.383785 0.366240
0.022447 0.415678 0.388025
0.088035 0.486651 0.445032
0.514952 0.564661 0.457160
0.760844 0.588552 0.468785
0.947112 0.548147 0.409836
0.004113 0.575335 0.481075
-0.004173 0.611271 0.499837
0.032390 0.608218 0.448605
0.468275 0.690673 0.350973
0.810927 0.759459 0.269703
0.979786 0.668704 0.306348
-0.005542 0.809530 0.550888
-0.005440 0.800194 0.464583
0.006225 0.872425 0.280825
0.499593 0.923950 0.109511
0.785616 0.914359 0.209130
0.966574 0.895015 0.139100
0.027439 0.343511 0.373431
0.051865 0.356828 0.363739
0.326418 0.380467 0.384399
0.606087 0.416569 0.368444
0.790794 0.394400 0.341697
0.887867 0.414053 0.382884
0.027683 0.340095 0.374861
0.025459 0.364223 0.414794
0.231876 0.388288 0.435277
0.569103 0.429298 0.423967
0.775947 0.429922 0.406443
0.887590 0.435436 0.429258
0.024655 0.375743 0.417610
0.023167 0.395948 0.439944
0.100243 0.443148 0.515346
0.502936 0.422870 0.529226
0.771128 0.483444 0.494548
0.894535 0.484332 0.493213
0.021412 0.424388 0.463885
0.020051 0.450737 0.490181
0.065557 0.502513 0.538781
0.382860 0.567607 0.622618
0.773844 0.589009 0.597677
0.907339 0.595854 0.572946
0.018306 0.517766 0.530344
0.011549 0.546164 0.546772
0.002819 0.598635 0.585143
0.313895 0.697474 0.649257
0.753597 0.779231 0.655601
0.955116 0.762441 0.642229
-0.005034 0.723881 0.661479
-0.005370 0.772833 0.675599
-0.005898 0.849482 0.693148
0.100760 0.920711 0.603916
0.666843 0.950719 0.405465
0.966487 0.924878 0.451315
0.020585 0.438059 0.488845
0.022797 0.445330 0.467728
0.247227 0.476668 0.507740
0.588690 0.467062 0.557212
0.792350 0.495800 0.556182
0.927081 0.475307 0.564853
0.021144 0.425024 0.492804
0.019829 0.450152 0.528365
0.168635 0.476934 0.554679
0.495626 0.449841 0.609391
0.807858 0.478402 0.614893
0.945602 0.478553 0.609514
0.019636 0.454953 0.532378
0.019259 0.464264 0.544236
0.048244 0.503940 0.612140
0.364908 0.486919 0.663008
0.781844 0.487390 0.700122
0.965319 0.495505 0.677664
0.018421 0.497424 0.577780
0.017180 0.517337 0.598507
0.024586 0.544195 0.625638
0.293848 0.600086 0.722917
0.684030 0.572621 0.750231
0.971579 0.574225 0.738557
0.004329 0.555532 0.630374
-0.004096 0.580300 0.650342
-0.004231 0.610433 0.672364
0.236390 0.676556 0.733657
0.658764 0.754894 0.784783
0.964523 0.730044 0.779316
-0.004651 0.659851 0.700527
-0.004843 0.687651 0.713972
-0.005127 0.728456 0.733346
0.124961 0.793461 0.767294
0.563399 0.881566 0.790252
0.926920 0.941954 0.756663
