assets/luts/Ramazan-Kocaturk-cinematic-dis-cekim-122.cube
LUT_3D_SIZE 16
0.034078 0.046275 0.053410
0.036442 0.051636 0.055668
0.075077 0.067058 0.064870
0.133219 0.082195 0.074034
0.187395 0.089213 0.075897
0.246991 0.096459 0.075888
0.299382 0.103838 0.072502
0.350669 0.114677 0.071242
0.401834 0.125352 0.070664
0.457737 0.134124 0.072472
0.515978 0.144127 0.074572
0.577720 0.155184 0.077210
0.635962 0.170675 0.077156
0.692365 0.186869 0.076894
0.744826 0.199338 0.078680
0.801514 0.212465 0.081117
0.039970 0.060864 0.059086
0.040966 0.064292 0.058981
0.074853 0.066850 0.064668
0.133050 0.082066 0.073916
0.187361 0.089189 0.075876
0.246993 0.096461 0.075889
0.299385 0.103840 0.072503
0.350642 0.114374 0.071443
0.402808 0.125647 0.070586
0.459364 0.135913 0.071594
0.518987 0.148920 0.072013
0.582322 0.164952 0.071978
0.643041 0.181093 0.072238
0.697070 0.195846 0.072620
0.752968 0.210899 0.073767
0.804402 0.221028 0.077101
0.049488 0.111113 0.066764
0.049293 0.110768 0.066522
0.071367 0.106715 0.065255
0.153209 0.102969 0.064040
0.209575 0.108346 0.063644
0.261449 0.116657 0.062769
0.313954 0.128216 0.060350
0.365952 0.141594 0.058454
0.419823 0.156938 0.056324
0.478056 0.171541 0.055426
0.541016 0.189041 0.054474
0.601865 0.205977 0.054322
0.659217 0.220914 0.055261
0.720500 0.234683 0.057688
0.776040 0.244369 0.061537
0.821674 0.255864 0.063433
0.048844 0.153882 0.062756
0.048764 0.153715 0.062659
0.084341 0.149457 0.062548
0.142546 0.145146 0.061728
0.216953 0.134007 0.058489
0.272102 0.134533 0.056441
0.330402 0.147355 0.054142
0.383352 0.161168 0.052088
0.439125 0.177404 0.049927
0.498345 0.195565 0.047800
0.558627 0.216964 0.045422
0.618317 0.238987 0.043509
0.679713 0.258815 0.043255
0.747144 0.269209 0.048346
0.804198 0.276796 0.054235
0.849596 0.285724 0.055678
0.046273 0.184474 0.058617
0.046263 0.184450 0.058607
0.092334 0.185794 0.057782
0.155463 0.176067 0.058062
0.216972 0.178152 0.054673
0.280856 0.164933 0.052142
0.340080 0.167655 0.049418
0.401638 0.181580 0.046898
0.460993 0.197886 0.044785
0.523395 0.218932 0.042208
0.582575 0.242137 0.039674
0.643325 0.262848 0.038519
0.700519 0.282645 0.038219
0.767868 0.296539 0.042961
0.822268 0.310278 0.049092
0.871761 0.320024 0.050506
0.043835 0.207298 0.055632
0.043837 0.207304 0.055635
0.102266 0.214133 0.053647
0.169282 0.209764 0.052876
0.240118 0.215469 0.049181
0.287362 0.215489 0.047512
0.347731 0.205590 0.045604
0.409937 0.210997 0.042365
0.473501 0.223075 0.039897
0.541810 0.245321 0.037142
0.606213 0.268395 0.035180
0.665624 0.290182 0.034103
0.727419 0.307124 0.034855
0.788750 0.322375 0.040114
0.844911 0.333640 0.045918
0.895536 0.342017 0.046075
0.040763 0.234011 0.051861
0.040764 0.234014 0.051863
0.112382 0.238993 0.049960
0.180503 0.248015 0.046876
0.243472 0.254284 0.043840
0.311507 0.267857 0.041149
0.362344 0.265429 0.040414
0.421808 0.256203 0.039272
0.488231 0.263911 0.036533
0.554034 0.278241 0.034209
0.619721 0.296066 0.032524
0.683601 0.317169 0.031731
0.746866 0.333952 0.032313
0.811443 0.349080 0.037355
0.867595 0.358200 0.042434
0.918428 0.364416 0.042234
0.038229 0.259265 0.047977
0.040773 0.260177 0.047832
0.132011 0.270702 0.045217
0.198265 0.282339 0.042086
0.259070 0.293238 0.039027
0.327723 0.308225 0.036354
0.385533 0.321518 0.034819
0.438970 0.324049 0.034433
0.503869 0.316584 0.034011
0.573065 0.325785 0.032421
0.636871 0.337179 0.031503
0.698561 0.349208 0.031281
0.756729 0.362136 0.031801
0.827611 0.377207 0.034021
0.889769 0.385141 0.036520
0.935915 0.390115 0.038326
0.051677 0.285678 0.044226
0.064375 0.287024 0.043961
0.155228 0.299697 0.041074
0.216189 0.314251 0.038036
0.276484 0.328347 0.035204
0.337938 0.345315 0.032375
0.408750 0.365503 0.030801
0.468843 0.388494 0.029612
0.526199 0.392211 0.030301
0.592031 0.382589 0.031526
0.658689 0.388495 0.031346
0.718422 0.397525 0.031717
0.776060 0.405288 0.032713
0.832710 0.408387 0.034109
0.893684 0.415048 0.035755
0.948679 0.414474 0.037295
0.079262 0.319540 0.039732
0.097083 0.318408 0.039700
0.177602 0.330591 0.037141
0.239267 0.345145 0.034461
0.295373 0.362301 0.031818
0.352516 0.380354 0.029268
0.421053 0.405342 0.027388
0.491934 0.431512 0.027020
0.556375 0.466404 0.027252
0.616189 0.468758 0.029427
0.679360 0.454524 0.031909
0.740674 0.456978 0.033347
0.797686 0.457548 0.034649
0.855194 0.459012 0.035980
0.913870 0.452316 0.037013
0.955586 0.445571 0.037669
0.090985 0.364394 0.034690
0.112280 0.364598 0.034495
0.197124 0.374789 0.032606
0.257235 0.383523 0.031418
0.313441 0.394094 0.029797
0.369560 0.417605 0.026925
0.429898 0.442038 0.025027
0.506069 0.475493 0.024983
0.577267 0.507994 0.026812
0.643555 0.551306 0.029359
0.700239 0.551648 0.032042
0.760350 0.527270 0.035055
0.819347 0.521416 0.036771
0.878293 0.515372 0.037942
0.940339 0.504947 0.038848
0.959201 0.491430 0.038784
0.107084 0.395641 0.032653
0.130745 0.396113 0.032424
0.214867 0.403520 0.032428
0.278123 0.413191 0.032434
0.330517 0.424823 0.032022
0.390756 0.451648 0.028820
0.449296 0.479486 0.025140
0.516753 0.513430 0.021616
0.594191 0.555512 0.027087
0.661914 0.593821 0.029709
0.723216 0.639107 0.032065
0.776626 0.630550 0.034351
0.841985 0.598940 0.038027
0.902026 0.583306 0.039929
0.957823 0.564172 0.040671
0.961214 0.549749 0.040425
0.132955 0.417959 0.035479
0.157206 0.418325 0.035376
0.235510 0.428167 0.036832
0.297459 0.442303 0.038413
0.352210 0.458077 0.039682
0.410297 0.484334 0.037250
0.473179 0.516181 0.033363
0.536492 0.553459 0.029028
0.607932 0.593299 0.019769
0.680823 0.638561 0.024696
0.730691 0.672297 0.026399
0.788300 0.718921 0.026273
0.841453 0.700131 0.036505
0.918949 0.654266 0.040521
0.957856 0.631863 0.041953
0.961081 0.616451 0.041805
0.177640 0.512444 0.024792
0.197051 0.508724 0.025139
0.268804 0.524865 0.025886
0.330276 0.537936 0.028012
0.387490 0.556918 0.032222
0.442389 0.572661 0.035008
0.500909 0.600472 0.033913
0.561043 0.633794 0.030768
0.623597 0.662677 0.014284
0.686553 0.695324 0.014951
0.747805 0.725854 0.014757
0.792574 0.747601 0.017383
0.849652 0.776749 0.023366
0.908984 0.749193 0.038643
0.960542 0.707500 0.041645
0.956979 0.681407 0.041925
0.244673 0.579084 0.011733
0.256262 0.581760 0.010871
0.308046 0.604267 0.009982
0.357308 0.630264 0.010330
0.409526 0.657247 0.013229
0.463557 0.677283 0.019185
0.519241 0.696198 0.020196
0.579381 0.718953 0.014573
0.637815 0.741750 0.012646
0.697508 0.765375 0.012355
0.750165 0.782346 0.013202
0.800189 0.799451 0.012684
0.845732 0.813118 0.013828
0.912741 0.830962 0.021285
0.958540 0.802782 0.040379
0.963235 0.749500 0.041260
0.274408 0.685851 0.013517
0.284939 0.687243 0.013425
0.328310 0.698262 0.012755
0.368619 0.715326 0.012527
0.413165 0.732192 0.011896
0.465582 0.754215 0.010498
0.521789 0.777644 0.009628
0.580710 0.800103 0.009461
0.639384 0.818103 0.010709
0.694697 0.831298 0.010363
0.746288 0.842188 0.009664
0.798411 0.851136 0.010525
0.850414 0.856918 0.013413
0.901158 0.866250 0.012931
0.960522 0.889553 0.016940
0.964917 0.849365 0.030241
0.038223 0.055085 0.064541
0.038628 0.056330 0.064915
0.074979 0.066968 0.064782
0.132949 0.081993 0.073842
0.187249 0.089109 0.075804
0.246966 0.096455 0.075877
0.299386 0.103841 0.072504
0.351421 0.111615 0.073916
0.401194 0.118778 0.075672
0.450924 0.124977 0.078284
0.508338 0.134367 0.080420
0.569459 0.148175 0.080662
0.630126 0.162647 0.081280
0.688793 0.178022 0.081626
0.741621 0.191337 0.082742
0.797509 0.205257 0.084555
0.040729 0.062209 0.068185
0.041272 0.064242 0.069335
0.077228 0.075266 0.073165
0.133801 0.086228 0.079694
0.190738 0.093797 0.080224
0.249699 0.100302 0.077945
0.305739 0.107720 0.074375
0.358840 0.116949 0.073583
0.412736 0.125120 0.072972
0.466303 0.134741 0.073570
0.523014 0.145258 0.075020
0.583045 0.159761 0.075319
0.643505 0.175040 0.075839
0.702799 0.189413 0.077207
0.756634 0.202497 0.079007
0.803489 0.215947 0.079644
0.049483 0.111105 0.066765
0.049494 0.116469 0.070940
0.070986 0.109176 0.072602
0.150242 0.107000 0.069586
0.205567 0.111913 0.069109
0.260725 0.119703 0.066239
0.316474 0.130226 0.064109
0.370534 0.142639 0.061405
0.429233 0.155239 0.059287
0.487139 0.168948 0.057568
0.548295 0.186014 0.056665
0.608918 0.202579 0.056670
0.669788 0.216008 0.058910
0.732768 0.226949 0.063074
0.787433 0.237860 0.066943
0.830911 0.250224 0.067395
0.048841 0.153877 0.062754
0.048291 0.160188 0.063958
0.080434 0.152541 0.065643
0.143070 0.148008 0.064212
0.223087 0.137052 0.058659
0.279369 0.139505 0.056101
0.333834 0.150462 0.054371
0.388912 0.165144 0.052459
0.444509 0.181449 0.049962
0.503619 0.198423 0.047495
0.566796 0.219099 0.045506
0.628373 0.239414 0.044572
0.689920 0.255097 0.047704
0.749904 0.267234 0.053680
0.804554 0.274186 0.059718
0.856107 0.280508 0.061039
0.046273 0.184473 0.058617
0.045529 0.191579 0.058145
0.088103 0.192784 0.057759
0.156664 0.179468 0.060092
0.220207 0.180982 0.054719
0.288513 0.168462 0.051434
0.348659 0.172722 0.048407
0.405219 0.184452 0.046291
0.462988 0.202347 0.043715
0.522913 0.222890 0.041173
0.583801 0.246856 0.038591
0.648007 0.266807 0.037982
0.707677 0.286297 0.040333
0.766979 0.301378 0.047685
0.820349 0.314421 0.054343
0.870959 0.321672 0.055462
0.043835 0.207298 0.055632
0.043100 0.213840 0.054859
0.095563 0.222394 0.052703
0.168604 0.213345 0.053271
0.240052 0.220944 0.048458
0.288167 0.216308 0.047384
0.356441 0.211333 0.044795
0.419647 0.215546 0.041707
0.484608 0.229459 0.038945
0.546091 0.250543 0.036403
0.606613 0.273249 0.034439
0.668331 0.294405 0.033592
0.729540 0.310443 0.036484
0.787293 0.327481 0.043315
0.842873 0.338451 0.049933
0.892863 0.346409 0.049664
0.040763 0.234011 0.051861
0.040125 0.239831 0.050995
0.107721 0.247920 0.048794
0.182329 0.252892 0.046312
0.245245 0.258646 0.043475
0.311886 0.269737 0.040933
0.362503 0.269446 0.040054
0.432526 0.264600 0.038531
0.500390 0.272116 0.035817
0.569361 0.285627 0.033616
0.632609 0.302680 0.032196
0.689965 0.322294 0.031565
0.753053 0.338999 0.032794
0.810604 0.352788 0.039192
0.866475 0.363747 0.044284
0.917168 0.368766 0.044551
0.037916 0.259395 0.048138
0.038258 0.264468 0.047227
0.125942 0.274278 0.044861
0.195871 0.284037 0.041958
0.257775 0.295695 0.038824
0.326998 0.311090 0.036033
0.386456 0.325932 0.034387
0.440489 0.327816 0.034028
0.518102 0.325790 0.033444
0.586685 0.333744 0.032063
0.653405 0.344776 0.031344
0.714297 0.354983 0.031351
0.770681 0.369211 0.032084
0.836184 0.380045 0.034934
0.892995 0.389237 0.037399
0.939675 0.392854 0.038512
0.039253 0.285714 0.044285
0.052185 0.291748 0.043414
0.149513 0.304380 0.040622
0.215386 0.317953 0.037672
0.275865 0.331437 0.034908
0.337906 0.347609 0.032155
0.410198 0.369469 0.030396
0.469447 0.391600 0.029316
0.530967 0.396426 0.030143
0.607506 0.393665 0.031237
0.673486 0.398509 0.031408
0.733879 0.405002 0.032025
0.793264 0.409896 0.033192
0.852702 0.412129 0.034682
0.907651 0.416925 0.036102
0.951282 0.418948 0.037263
0.061937 0.320764 0.039702
0.079059 0.326111 0.038963
0.172203 0.340866 0.036169
0.237739 0.351940 0.034002
0.294692 0.364190 0.031865
0.352875 0.383304 0.029105
0.420841 0.408624 0.027171
0.493888 0.434608 0.026854
0.557068 0.467356 0.027203
0.619682 0.473717 0.029417
0.694542 0.467071 0.032432
0.756579 0.466099 0.033944
0.813553 0.465278 0.035240
0.874724 0.462430 0.036461
0.935352 0.453015 0.037473
0.957243 0.449485 0.037777
0.068039 0.366019 0.034666
0.089534 0.371206 0.034086
0.189369 0.379380 0.032697
0.253746 0.387079 0.031913
0.311772 0.397231 0.030862
0.368960 0.420311 0.027575
0.430649 0.445323 0.025140
0.505846 0.478822 0.024814
0.579047 0.511619 0.026825
0.642009 0.552351 0.029275
0.704140 0.556251 0.032057
0.775765 0.541075 0.035624
0.835886 0.532578 0.037368
0.899166 0.519744 0.038490
0.953284 0.506774 0.039115
0.959347 0.494886 0.038888
0.089468 0.392917 0.033408
0.111845 0.397441 0.033065
0.206753 0.406543 0.033294
0.274653 0.416564 0.033884
0.329010 0.429154 0.034691
0.389976 0.454642 0.031491
0.449720 0.482600 0.027363
0.516773 0.516816 0.023638
0.595537 0.558780 0.025964
0.661494 0.594822 0.029735
0.721375 0.641262 0.031882
0.777976 0.634664 0.034439
0.858223 0.608942 0.038601
0.923049 0.591048 0.040480
0.960820 0.571006 0.040905
0.961494 0.554730 0.040549
0.112938 0.412127 0.037933
0.137804 0.417606 0.037690
0.226827 0.429840 0.039004
0.292997 0.443536 0.040358
0.350902 0.459905 0.042367
0.408201 0.486143 0.040819
0.471302 0.519511 0.036371
0.536739 0.555876 0.032134
0.607883 0.597816 0.018677
0.680888 0.642818 0.023032
0.731662 0.675068 0.025282
0.790883 0.720307 0.026161
0.842029 0.701247 0.036554
0.935267 0.662903 0.041027
0.956745 0.642554 0.041928
0.958974 0.619691 0.041816
0.165495 0.512285 0.025097
0.182635 0.515305 0.025027
0.260226 0.529734 0.026285
0.325776 0.543934 0.029148
0.385888 0.562008 0.033624
0.442177 0.578525 0.037039
0.500047 0.604539 0.036258
0.562151 0.637020 0.033254
0.624658 0.667009 0.022718
0.686606 0.698301 0.013996
0.747926 0.728357 0.014850
0.792377 0.749651 0.017565
0.847958 0.778366 0.022255
0.910921 0.752463 0.038678
0.961266 0.719465 0.041585
0.957279 0.685577 0.042043
0.235575 0.577209 0.012442
0.248589 0.582898 0.010892
0.303411 0.607822 0.010055
0.354959 0.635437 0.010403
0.405820 0.660028 0.015219
0.462660 0.681759 0.021920
0.519999 0.701897 0.024602
0.578525 0.721811 0.018380
0.637665 0.745100 0.012175
0.697455 0.767302 0.012470
0.750056 0.785121 0.011949
0.803549 0.800368 0.012048
0.846463 0.812826 0.013996
0.912723 0.831172 0.022195
0.959967 0.805442 0.040507
0.962859 0.754024 0.041141
0.263969 0.684082 0.013582
0.275464 0.687378 0.013509
0.322017 0.701272 0.012943
0.364271 0.717516 0.012678
0.410279 0.734589 0.012160
0.463993 0.756733 0.010594
0.519470 0.779273 0.009642
0.578837 0.802201 0.009314
0.636912 0.820227 0.010114
0.694378 0.834351 0.010871
0.747363 0.845423 0.010757
0.798797 0.854602 0.011471
0.850488 0.858088 0.012327
0.900370 0.866905 0.012846
0.961156 0.890842 0.016417
0.964413 0.850602 0.029988
0.046498 0.082396 0.100034
0.045944 0.081580 0.099110
0.111135 0.081744 0.097037
0.166581 0.089942 0.101025
0.220843 0.097060 0.103895
0.276697 0.100369 0.103787
0.328516 0.104819 0.102374
0.380974 0.109983 0.100783
0.435748 0.116767 0.099296
0.493145 0.124796 0.096680
0.552136 0.135173 0.095216
0.611962 0.148020 0.095126
0.666505 0.159991 0.095511
0.721652 0.171814 0.096177
0.777791 0.184140 0.095507
0.817663 0.201057 0.090698
0.046518 0.082433 0.100075
0.046810 0.086092 0.100766
0.101077 0.084883 0.103166
0.156840 0.093061 0.103756
0.213872 0.098678 0.105647
0.273701 0.102296 0.104545
0.327198 0.106801 0.102135
0.379915 0.111704 0.101166
0.435814 0.118868 0.100192
0.493708 0.126655 0.097008
0.553986 0.137328 0.095151
0.612269 0.149964 0.095283
0.668822 0.162447 0.095303
0.724104 0.173694 0.096072
0.778021 0.185986 0.095599
0.820436 0.201883 0.090817
0.049288 0.104207 0.108938
0.049188 0.106445 0.108774
0.064513 0.109822 0.113529
0.128465 0.117919 0.114373
0.189960 0.124953 0.112990
0.258284 0.129959 0.100163
0.320066 0.134723 0.099272
0.379361 0.139784 0.094429
0.437523 0.145763 0.091863
0.497836 0.153299 0.090934
0.559746 0.163662 0.090120
0.621450 0.178320 0.088858
0.678951 0.189899 0.090921
0.735678 0.199724 0.095711
0.792505 0.211370 0.095384
0.845603 0.223334 0.091568
0.048731 0.153598 0.116160
0.048434 0.155480 0.110700
0.054205 0.161080 0.099696
0.136532 0.149837 0.097244
0.212173 0.145760 0.090858
0.270088 0.151134 0.086608
0.327045 0.161512 0.085840
0.386095 0.169371 0.081818
0.446046 0.182025 0.078262
0.509162 0.195908 0.072655
0.573430 0.212829 0.071864
0.635768 0.227847 0.073099
0.696029 0.240727 0.077878
0.750507 0.249999 0.083896
0.805459 0.258530 0.086322
0.858493 0.267471 0.084044
0.045921 0.186892 0.096779
0.045871 0.186808 0.094752
0.043671 0.206277 0.075368
0.141234 0.197166 0.076804
0.220305 0.189450 0.065321
0.291600 0.178356 0.061490
0.348309 0.182177 0.060424
0.405244 0.196461 0.061463
0.462905 0.214715 0.059280
0.524073 0.235052 0.056948
0.585083 0.257005 0.056923
0.648779 0.275696 0.059744
0.707737 0.290166 0.064823
0.765902 0.301419 0.071985
0.821470 0.308301 0.076323
0.873459 0.312535 0.076763
0.042883 0.215062 0.085085
0.043017 0.213956 0.081534
0.039523 0.244225 0.057544
0.143573 0.236493 0.058512
0.233736 0.233999 0.054557
0.291333 0.228872 0.049097
0.361593 0.219543 0.048676
0.425655 0.225427 0.043747
0.485965 0.241129 0.041241
0.548032 0.263016 0.039959
0.609536 0.284635 0.041605
0.668705 0.305611 0.046249
0.726733 0.323934 0.054999
0.783950 0.340807 0.063318
0.839695 0.352328 0.069596
0.888408 0.359227 0.069188
0.040160 0.238792 0.075463
0.040248 0.238168 0.070556
0.035475 0.280463 0.047140
0.152450 0.276051 0.047192
0.234625 0.269455 0.048116
0.316169 0.283003 0.039556
0.362600 0.282184 0.039077
0.434619 0.274257 0.038310
0.503054 0.279540 0.035604
0.571273 0.295880 0.033547
0.633499 0.315132 0.032812
0.695121 0.332714 0.035377
0.751881 0.350893 0.043194
0.808645 0.365530 0.052618
0.861362 0.376790 0.057599
0.911236 0.383262 0.058671
0.037836 0.258996 0.066350
0.037910 0.258416 0.063645
0.034192 0.310139 0.041261
0.168167 0.309011 0.041192
0.245906 0.308397 0.042396
0.319879 0.321137 0.036797
0.389791 0.337533 0.033337
0.440310 0.339380 0.033157
0.518975 0.334984 0.033205
0.589257 0.342772 0.031900
0.656365 0.353435 0.031329
0.719808 0.366361 0.032090
0.777390 0.381766 0.036884
0.833739 0.394246 0.043283
0.889832 0.401082 0.046514
0.941889 0.405770 0.045241
0.035689 0.278059 0.063744
0.035674 0.278280 0.060080
0.058296 0.340549 0.037546
0.187123 0.340882 0.037462
0.264232 0.342143 0.038475
0.329400 0.356565 0.035137
0.405586 0.380633 0.029414
0.469122 0.400620 0.028668
0.529426 0.406578 0.029476
0.608753 0.403470 0.031132
0.676167 0.407565 0.031496
0.739552 0.413234 0.032310
0.802786 0.417604 0.035023
0.861525 0.425517 0.038852
0.919062 0.429432 0.038919
0.955836 0.430898 0.038238
0.033916 0.294430 0.066937
0.033128 0.302078 0.059841
0.085624 0.365789 0.035363
0.206161 0.369673 0.035816
0.280999 0.374922 0.037370
0.344024 0.392197 0.034951
0.414401 0.417243 0.028603
0.491727 0.447420 0.025992
0.554208 0.475644 0.026811
0.619637 0.484396 0.029328
0.697279 0.476782 0.032723
0.756899 0.473310 0.034235
0.819472 0.474222 0.035684
0.884136 0.468230 0.037023
0.940270 0.462243 0.037804
0.958044 0.460742 0.038028
0.030962 0.323758 0.070919
0.029675 0.337768 0.062131
0.107727 0.390082 0.035042
0.221124 0.399132 0.036485
0.295896 0.408505 0.039437
0.359575 0.427601 0.038812
0.423378 0.453216 0.034176
0.502149 0.488452 0.025678
0.579275 0.523067 0.026658
0.640956 0.558113 0.029233
0.704548 0.565226 0.031976
0.780664 0.551962 0.035653
0.840011 0.539830 0.037651
0.903412 0.527397 0.038711
0.957478 0.512087 0.039391
0.959701 0.501116 0.039068
0.027240 0.365684 0.074811
0.026526 0.374595 0.068005
0.128867 0.412906 0.038196
0.236108 0.426348 0.041003
0.313452 0.439527 0.044576
0.376855 0.459078 0.046166
0.443514 0.489913 0.042148
0.512516 0.523105 0.035356
0.591549 0.566529 0.027306
0.663975 0.604252 0.029797
0.718605 0.644233 0.031837
0.777335 0.643371 0.034165
0.861185 0.621816 0.038610
0.927372 0.597937 0.040723
0.961706 0.577532 0.041069
0.961623 0.561878 0.040785
0.025718 0.387294 0.091282
0.026934 0.393215 0.085656
0.155142 0.437103 0.044334
0.254786 0.454518 0.047957
0.332385 0.472218 0.049820
0.396645 0.494147 0.054571
0.463898 0.529873 0.050827
0.532124 0.565571 0.046263
0.602780 0.606093 0.036466
0.680559 0.649643 0.022279
0.737108 0.683077 0.024570
0.787674 0.724058 0.024633
0.837918 0.706266 0.036258
0.938105 0.673963 0.041089
0.957048 0.651142 0.042018
0.959223 0.626826 0.042861
0.032564 0.492616 0.026465
0.060345 0.498967 0.026185
0.200692 0.543143 0.027514
0.292103 0.558940 0.032042
0.364959 0.576375 0.038004
0.430915 0.597230 0.044239
0.492342 0.616186 0.047352
0.556682 0.645242 0.044723
0.621889 0.676445 0.039319
0.685055 0.704784 0.034419
0.746860 0.736732 0.013579
0.794346 0.754263 0.016011
0.846913 0.781889 0.021224
0.910830 0.757672 0.038621
0.961786 0.730005 0.041302
0.958624 0.691190 0.044433
0.168606 0.563843 0.018181
0.183628 0.568765 0.016249
0.265356 0.614660 0.010589
0.330350 0.647262 0.012294
0.391430 0.672945 0.021264
0.452884 0.704971 0.031454
0.512710 0.719438 0.035075
0.572720 0.731086 0.036560
0.634471 0.753776 0.029039
0.694497 0.775465 0.013959
0.750256 0.792502 0.012071
0.803811 0.806349 0.012636
0.845040 0.815422 0.014054
0.912054 0.833222 0.021767
0.958124 0.810065 0.040338
0.963476 0.762266 0.041645
0.211235 0.677705 0.013385
0.223053 0.680693 0.013578
0.291992 0.704803 0.013863
0.345149 0.721648 0.013418
0.394662 0.740136 0.013045
0.451756 0.761567 0.011523
0.505979 0.786134 0.009859
0.568258 0.808149 0.009199
0.630651 0.829029 0.009550
0.688510 0.843649 0.010056
0.745171 0.853927 0.010664
0.799478 0.862151 0.010198
0.853817 0.864470 0.011644
0.898560 0.869250 0.012787
0.961507 0.892525 0.016398
0.964985 0.857181 0.028399
0.049421 0.106294 0.127776
0.048938 0.105478 0.126873
0.094539 0.095463 0.131228
0.183772 0.100733 0.120196
0.243340 0.110187 0.126412
0.298600 0.116894 0.127876
0.350959 0.122964 0.126820
0.405085 0.127424 0.125837
0.461144 0.132250 0.120439
0.516741 0.139194 0.117729
0.572337 0.149372 0.116480
0.629184 0.160694 0.115707
0.682022 0.169786 0.116939
0.736922 0.181461 0.116027
0.787591 0.192744 0.114169
0.841542 0.203404 0.108558
0.049440 0.106329 0.127817
0.049107 0.109166 0.128526
0.084178 0.101687 0.133772
0.176370 0.103312 0.124077
0.236419 0.113733 0.127706
0.294232 0.119632 0.130148
0.349774 0.126259 0.128838
0.404713 0.129973 0.126458
0.460286 0.134784 0.122720
0.518064 0.141727 0.118640
0.573923 0.151519 0.117417
0.629964 0.162732 0.116870
0.683063 0.172444 0.117218
0.736240 0.182577 0.118764
0.788037 0.194304 0.115185
0.842521 0.204834 0.109107
0.049792 0.125075 0.133251
0.049492 0.125991 0.135270
0.053679 0.129530 0.143042
0.156080 0.123553 0.138749
0.212001 0.131450 0.137348
0.275269 0.132827 0.134810
0.338118 0.136217 0.132870
0.396592 0.138840 0.128368
0.456690 0.144388 0.125238
0.515172 0.152261 0.121731
0.573617 0.162154 0.119245
0.629504 0.171129 0.118533
0.683424 0.180822 0.117414
0.737787 0.189647 0.119543
0.791138 0.199561 0.115369
0.846290 0.209817 0.108503
0.049219 0.143429 0.139199
0.048998 0.145996 0.139037
0.051072 0.153434 0.145112
0.115840 0.154250 0.153162
0.188785 0.166003 0.156497
0.254718 0.170732 0.149641
0.323659 0.175116 0.145782
0.390871 0.176171 0.137945
0.450088 0.169430 0.129744
0.511835 0.173952 0.124211
0.573747 0.184687 0.121224
0.634186 0.197149 0.121851
0.692676 0.208966 0.119769
0.749982 0.221548 0.121275
0.803713 0.233317 0.119950
0.859915 0.244774 0.111557
0.045318 0.189733 0.150601
0.044720 0.195143 0.152730
0.043697 0.203111 0.140105
0.079801 0.214458 0.127939
0.212706 0.199472 0.114003
0.278722 0.193244 0.129844
0.338506 0.203309 0.128855
0.399329 0.212041 0.123365
0.461067 0.220544 0.114152
0.523315 0.229572 0.108194
0.588570 0.241519 0.104252
0.649387 0.252948 0.104222
0.707739 0.264240 0.107983
0.765433 0.277201 0.110278
0.820388 0.287734 0.109705
0.873490 0.294782 0.103616
0.040249 0.235248 0.151751
0.040368 0.234683 0.143722
0.040099 0.237764 0.117880
0.050134 0.257634 0.089926
0.209053 0.248849 0.088642
0.291748 0.242001 0.072428
0.361976 0.231697 0.084790
0.422141 0.239532 0.081970
0.482554 0.255552 0.081629
0.540347 0.274405 0.081793
0.601981 0.294009 0.085147
0.664180 0.308527 0.089386
0.723937 0.323425 0.094447
0.782608 0.336542 0.099690
0.836854 0.344897 0.100344
0.887243 0.346856 0.093848
0.037585 0.259363 0.133753
0.037772 0.257985 0.127457
0.037934 0.257372 0.104349
0.040374 0.295723 0.065199
0.209648 0.292734 0.065154
0.307011 0.296900 0.057020
0.363886 0.293758 0.053925
0.436791 0.284170 0.058291
0.505252 0.288893 0.052126
0.568909 0.306203 0.052323
0.630714 0.325004 0.056727
0.689125 0.342619 0.063805
0.747064 0.359044 0.073823
0.804404 0.376696 0.082791
0.856965 0.388670 0.087617
0.907153 0.392877 0.084418
0.035357 0.279773 0.123263
0.035481 0.278710 0.120031
0.035974 0.274958 0.094170
0.053925 0.329607 0.046790
0.217787 0.329554 0.053958
0.303395 0.331398 0.056715
0.388590 0.350059 0.037223
0.439565 0.350675 0.038238
